X: 142
T: Compliments to the Boys of the Lough
T: Jig, A
C: Frank Ferrel
L: 1/16
M: 6/8
K: A
|: E2A2A2 A2B2c2| B2c2B2 A4c2| d2e2f2 e2a2c2| B2A2c2 B2A2F2| E2A2A2 A2B2c2| B2c2B2 A4c2| d2e2f2 e2a2c2| B6 A6:| 
|: c2e2e2 e2c2e2| f2d2a2 e2c2A2| c2e2e2 e2c2e2| f2e2c2 B4A2| c2e2e2 e2c2e2| f2d2a2 e2c2A2| f2d2a2 e2c2A2| B2A2G2 A6:| 
D: Buddy MacMaster, The Judique Flyer
